X:67
T:Lord Mayo
T:Tiarna Mhaigh Eo
R:March
O:Ireland
M:2/4
C:David Murphy
K:DDor
A2|\
D2C2 D2E2|A4 AGEG|A4 D2ED|CDCB, A,3A,|\
D2C2 D2E2|A4 c3B|A4 AGED |1 D6 A,2 :|2 D8 ||
d2d2 cAcd|e4 edc2|A2G2 GAc2|C3D E2D2|\
d2d2 cAcd|e4 e2dc|A2G2 GAc2|d6 c2|
d2d2 cAcd|e4 edc2|A2G2 GAc2|C3D C2A,2|\
DCDE G2E2|D2C2 c3A|G4 EGED|D6||
